static/assets/img/logos/brand/color-slack.svg

<svg fill="none" height="36" viewBox="0 0 121 36" width="121" xmlns="http://www.w3.org/2000/svg"><path d="m42.7079 14.1233c0-3.5743 2.6069-6.07012 7.3444-6.07012 2.8906 0 5.2559.92264 6.5374 1.82646.1834.12906.5106.44216.3144 1.02446-.2514.6271-.7125 1.5703-1.0433 2.1829-.1925.357-.6843.31-.9362.1824-.9128-.4624-2.41-1.2447-3.7853-1.3889-.3483-.0379-.6987-.0531-1.0489-.0454-1.2113.0271-2.2232.4475-2.5796 1.3713-.0699.1748-.1088.3604-.1151.5486-.0333 1.2173 1.6615 1.6576 3.7146 2.0102 3.817.6537 6.7047 1.7724 6.7047 5.6999 0 3.3352-2.6515 6.3494-7.8467 6.257-3.4248-.0692-5.8546-1.2261-7.1566-2.3487-.0444-.0381-.54-.5427-.2743-1.1496.304-.7813.8172-1.6767 1.2199-2.1521.2239-.3054.8148-.3539 1.122-.1635 1.0732.6667 2.8395 1.7357 4.8755 1.8066.1607.0056.3199.0065.4763.0024 1.8313-.0443 2.9393-.7385 2.9162-1.9079-.0198-1.0303-1.4719-1.6321-3.7841-2.0677-3.6879-.6945-6.6548-1.9097-6.6548-5.6183zm33.5036 5.0893c-2.6006.034-4.985.7446-5.0538 2.7764-.0007 1.6122 1.3076 2.4041 3.1438 2.3004 1.7614-.1696 3.1046-.9332 3.6965-1.9466.2189-.3755.2522-1.7808.2389-2.3815-.0034-.1278-.2563-.3697-.367-.4163-.5526-.2328-.9615-.3046-1.6586-.3329zm-8.6533-8.1867c1.2161-1.08788 3.6273-2.78119 7.47-2.69194 5.0712.10541 7.7502 2.48204 7.9997 8.16744.1028 2.3446-.0675 8.8843-.1081 10.5137-.006.2337-.0852.3953-.4003.4014-.8351.0335-2.7644.0202-3.6509.0087-.4474-.0218-.4992-.2437-.505-.476-.0039-.1519-.0169-.6025-.0263-.9699-.0051-.1949-.1882-.1893-.235-.1394-1.1896 1.2698-3.1377 1.8829-5.2094 1.8829-3.1489 0-6.288-1.8518-6.2784-5.5189.0097-3.7557 2.6735-5.6082 5.5998-6.045 1.8739-.2789 3.9861-.0309 5.5856.6044.1023.0411.3113-.0183.313-.1633.0065-.4785-.0167-1.3905-.1086-1.8228-.2348-1.1014-1.1538-1.9876-3.0846-2.2264-.3977-.0489-.798-.0651-1.1988-.0333-1.5348.1206-3.3818 1.3171-4.1467 1.765-.18.1052-.4619.0282-.5531-.0893-.4463-.5765-1.5683-2.2625-1.6566-2.532-.0884-.2687.0361-.4949.1932-.6363zm17.1418 6.9913c-.0301-5.238 3.6206-9.65671 9.5485-9.69555 3.699-.02412 6.3865 1.65231 6.8605 2.44295.096.1858.046.3409-.02.5278-.313.6609-1.1043 1.9379-1.668 2.6616-.24.3082-.5006.0441-.8035-.1573-.8404-.5596-2.4372-1.2439-4.0087-1.2439-2.8511.0004-4.9742 1.9547-4.9505 5.5502.0222 3.4503 2.0557 5.3465 4.9604 5.4152 1.5184.0382 2.9895-.8343 3.781-1.549.2485-.2169.5057-.1083.7897.1136.5574.5695 1.3566 1.4487 1.7996 2.0539.291.3363.074.6653-.031.7975-1.2025 1.5213-3.5252 2.8016-6.599 2.819-6.4361.0451-9.6288-4.4788-9.6585-9.7353zm30.723 9.4999c.302-.0227 3.525-.4675 4.515-.694.246-.056.333-.2624.196-.467-.553-.8283-2.006-3.1806-3.527-5.2864-1.4-1.9362-2.875-3.6392-3.352-4.2943-.116-.1592-.11-.316.017-.4395.907-.8876 4.703-4.6083 6.131-6.1449.552-.59768.22-.85481-.249-.99447-.906-.27016-2.373-.60689-3.207-.78273-.351-.0743-.775-.04825-1.082.26774-1.427 1.33026-5.782 5.69986-7.082 7.00596-.234.2357-.371.1834-.372-.1534-.01-2.5182-.06-13.29991-.15-15.073302-.006-.234458-.288-.4124727-.447-.4209151-.818-.04269449-2.883-.0549965-3.697-.0072365-.228.0258097-.446.2580966-.466.4544436-.187 2.83569.08 23.65181.191 26.56371.008.2106.165.3739.365.3857.812.047 2.821.0439 3.758.0263.461 0 .518-.3242.518-.3242l.069-5.5857s.048-.2485.125-.3305c.331-.3558 1.245-1.3356 1.635-1.7143.094-.0909.241-.0844.337.0441.463.6248 1.784 2.6558 3.009 4.4697 1.125 1.6663 2.175 3.1452 2.248 3.2496.17.2412.368.2509.517.2463zm-54.8291-.0193c.2835.0094 2.4346.007 3.3877.0057.3209.0063.4876-.2366.4983-.451.2024-4.0828.1158-23.52107-.0121-26.590496-.0106-.265333-.1243-.3649536-.3055-.3890748-.8179-.1095102-3.1425-.083942-3.8876.1109568-.1458.037871-.2317.148587-.2362.290902-.1825 7.911752-.0594 26.152212-.0208 26.497612.0384.3459.2193.5133.5767.5254z" fill="#443642"/><path d="m3.02431 19.3801c-1.32564.0101-2.4486-.7796-2.862651-2.0122-.015361-.0466-.029681-.0934-.04295-.1406-.451209-1.5785.423703-3.2299 1.991841-3.7586l25.15195-8.42384c.2986-.08637.6077-.13149.9185-.13411 1.3609-.01062 2.5148.79648 2.9389 2.05512l.0377.12158c.4705 1.6441-.6986 3.11165-2.0992 3.58195-.001.0008-.2558.0869-25.01248 8.5368-.32906.1121-.67397.1708-1.02161.1739z" fill="#70cadb"/><path d="m7.21673 31.7457c-1.33601.0097-2.46283-.769-2.87205-1.984-.01554-.0462-.03002-.0927-.04344-.1396-.45748-1.5973.41647-3.266 1.98991-3.7955l25.15285-8.501c.325-.1086.6607-.164.9982-.1672 1.3397-.0101 2.5167.8081 2.9319 2.0368l.0386.1279c.243.8493.0995 1.8037-.3836 2.557-.36.5601-1.4955 1.0532-1.4955 1.0532l-25.24844 8.6303c-.34435.1165-.70491.1781-1.06843.1826z" fill="#e01765"/><path d="m28.1546 31.7994c-.652.0063-1.2892-.1939-1.8204-.5719-.5311-.3779-.929-.9143-1.1366-1.5322l-8.3944-24.92681-.042-.1399c-.4548-1.58959.4199-3.24768 1.9875-3.775932.3137-.10541.638-.160406.9644-.163301.485-.003618.9543.10565 1.3964.323943.3641.18002.689.43022.9561.73622.267.306.4709.66176.5999 1.04682l8.3937 24.92466.0244.0801c.4715 1.6504-.4013 3.3094-1.9689 3.8377-.3097.1034-.6336.1576-.9601.1606z" fill="#e8a723"/><path d="m15.6769 35.998c-.6524.0062-1.2899-.1942-1.8213-.5725-.5314-.3782-.9294-.915-1.1369-1.5333l-8.39227-24.92585c-.13003-.38455-.18292-.79095-.15563-1.19596.02728-.405.13421-.80065.31465-1.16429.18045-.36364.43086-.68813.73692-.95489.30605-.26677.66173-.47057 1.04668-.59973.31011-.10364.63456-.15801.96153-.16113.65207-.00644 1.28943.19368 1.82072.57167.53128.37798.92922.91442 1.1368 1.53242l8.3924 24.92686c.1301.3847.183.7913.1556 1.1965-.0273.4052-.1344.801-.3151 1.1648-.1807.3637-.4313.6882-.7377.9549-.3063.2668-.6623.4704-1.0475.5994-.3096.1037-.6335.158-.9599.1609h.001z" fill="#3eb890"/><path d="m24.0161 26.1859 5.8532-2.0006-1.9134-5.6805-5.86 1.9796z" fill="#cc2027"/><path d="m11.5577 30.4444 5.8527-2.0004-1.9279-5.724-5.85848 1.9804z" fill="#361238"/><path d="m19.8493 13.8129 5.8537-1.998-1.891-5.61416-5.8645 1.96419z" fill="#65863a"/><path d="m7.38935 18.0655 5.85365-1.998-1.9141-5.6858-5.86454 1.9639z" fill="#1a937d"/></svg>

<svg width="121" height="36" viewBox="0 0 121 36" fill="none" xmlns="http://www.w3.org/2000/svg">
<g clip-path="url(#clip0)">
<path d="M42.7079 14.1233C42.7079 10.549 45.3148 8.05318 50.0523 8.05318C52.9429 8.05318 55.3082 8.97582 56.5897 9.87964C56.7731 10.0087 57.1003 10.3218 56.9041 10.9041C56.6527 11.5312 56.1916 12.4744 55.8608 13.087C55.6683 13.444 55.1765 13.397 54.9246 13.2694C54.0118 12.807 52.5146 12.0247 51.1393 11.8805C50.791 11.8426 50.4406 11.8274 50.0904 11.8351C48.8791 11.8622 47.8672 12.2826 47.5108 13.2064C47.4409 13.3812 47.402 13.5668 47.3957 13.755C47.3624 14.9723 49.0572 15.4126 51.1103 15.7652C54.9273 16.4189 57.815 17.5376 57.815 21.4651C57.815 24.8003 55.1635 27.8145 49.9683 27.7221C46.5435 27.6529 44.1137 26.496 42.8117 25.3734C42.7673 25.3353 42.2717 24.8307 42.5374 24.2238C42.8414 23.4425 43.3546 22.5471 43.7573 22.0717C43.9812 21.7663 44.5721 21.7178 44.8793 21.9082C45.9525 22.5749 47.7188 23.6439 49.7548 23.7148C49.9155 23.7204 50.0747 23.7213 50.2311 23.7172C52.0624 23.6729 53.1704 22.9787 53.1473 21.8093C53.1275 20.779 51.6754 20.1772 49.3632 19.7416C45.6753 19.0471 42.7084 17.8319 42.7084 14.1233H42.7079ZM76.2115 19.2126C73.6109 19.2466 71.2265 19.9572 71.1577 21.989C71.157 23.6012 72.4653 24.3931 74.3015 24.2894C76.0629 24.1198 77.4061 23.3562 77.998 22.3428C78.2169 21.9673 78.2502 20.562 78.2369 19.9613C78.2335 19.8335 77.9806 19.5916 77.8699 19.545C77.3173 19.3122 76.9084 19.2404 76.2113 19.2121L76.2115 19.2126ZM67.5582 11.0259C68.7743 9.93802 71.1855 8.24471 75.0282 8.33396C80.0994 8.43937 82.7784 10.816 83.0279 16.5014C83.1307 18.846 82.9604 25.3857 82.9198 27.0151C82.9138 27.2488 82.8346 27.4104 82.5195 27.4165C81.6844 27.45 79.7551 27.4367 78.8686 27.4252C78.4212 27.4034 78.3694 27.1815 78.3636 26.9492C78.3597 26.7973 78.3467 26.3467 78.3373 25.9793C78.3322 25.7844 78.1491 25.79 78.1023 25.8399C76.9127 27.1097 74.9646 27.7228 72.8929 27.7228C69.744 27.7228 66.6049 25.871 66.6145 22.2039C66.6242 18.4482 69.288 16.5957 72.2143 16.1589C74.0882 15.88 76.2004 16.128 77.7999 16.7633C77.9022 16.8044 78.1112 16.745 78.1129 16.6C78.1194 16.1215 78.0962 15.2095 78.0043 14.7772C77.7695 13.6758 76.8505 12.7896 74.9197 12.5508C74.522 12.5019 74.1217 12.4857 73.7209 12.5175C72.1861 12.6381 70.3391 13.8346 69.5742 14.2825C69.3942 14.3877 69.1123 14.3107 69.0211 14.1932C68.5748 13.6167 67.4528 11.9307 67.3645 11.6612C67.2761 11.3925 67.4006 11.1663 67.5577 11.0249L67.5582 11.0259ZM84.7 18.0172C84.6699 12.7792 88.3206 8.36049 94.2485 8.32165C97.9475 8.29753 100.635 9.97396 101.109 10.7646C101.205 10.9504 101.155 11.1055 101.089 11.2924C100.776 11.9533 99.9847 13.2303 99.421 13.954C99.181 14.2622 98.9204 13.9981 98.6175 13.7967C97.7771 13.2371 96.1803 12.5528 94.6088 12.5528C91.7577 12.5532 89.6346 14.5075 89.6583 18.103C89.6805 21.5533 91.714 23.4495 94.6187 23.5182C96.1371 23.5564 97.6082 22.6839 98.3997 21.9692C98.6482 21.7523 98.9054 21.8609 99.1894 22.0828C99.7468 22.6523 100.546 23.5315 100.989 24.1367C101.28 24.473 101.063 24.802 100.958 24.9342C99.7555 26.4555 97.4328 27.7358 94.359 27.7532C87.9229 27.7983 84.7302 23.2744 84.7005 18.0179L84.7 18.0172ZM115.423 27.5171C115.725 27.4944 118.948 27.0496 119.938 26.8231C120.184 26.7671 120.271 26.5607 120.134 26.3561C119.581 25.5278 118.128 23.1755 116.607 21.0697C115.207 19.1335 113.732 17.4305 113.255 16.7754C113.139 16.6162 113.145 16.4594 113.272 16.3359C114.179 15.4483 117.975 11.7276 119.403 10.191C119.955 9.59332 119.623 9.33619 119.154 9.19653C118.248 8.92637 116.781 8.58964 115.947 8.4138C115.596 8.3395 115.172 8.36555 114.865 8.68154C113.438 10.0118 109.083 14.3814 107.783 15.6875C107.549 15.9232 107.412 15.8709 107.411 15.5341C107.401 13.0159 107.351 2.23419 107.261 0.460798C107.255 0.22634 106.973 0.0483253 106.814 0.0398829C105.996 -0.00281159 103.931 -0.0151136 103.117 0.0326464C102.889 0.0584561 102.671 0.290743 102.651 0.48709C102.464 3.32278 102.731 24.1389 102.842 27.0508C102.85 27.2614 103.007 27.4247 103.207 27.4365C104.019 27.4835 106.028 27.4804 106.965 27.4628C107.426 27.4628 107.483 27.1386 107.483 27.1386L107.552 21.5529C107.552 21.5529 107.6 21.3044 107.677 21.2224C108.008 20.8666 108.922 19.8868 109.312 19.5081C109.406 19.4172 109.553 19.4237 109.649 19.5522C110.112 20.177 111.433 22.208 112.658 24.0219C113.783 25.6882 114.833 27.1671 114.906 27.2715C115.076 27.5127 115.274 27.5224 115.423 27.5178V27.5171H115.423ZM60.5939 27.4978C60.8774 27.5072 63.0285 27.5048 63.9816 27.5035C64.3025 27.5098 64.4692 27.2669 64.4799 27.0525C64.6823 22.9697 64.5957 3.53143 64.4678 0.462004C64.4572 0.196671 64.3435 0.0970504 64.1623 0.0729292C63.3444 -0.036581 61.0198 -0.0110128 60.2747 0.183886C60.1289 0.221757 60.043 0.332473 60.0385 0.474788C59.856 8.38654 59.9791 26.627 60.0177 26.9724C60.0561 27.3183 60.237 27.4857 60.5944 27.4978H60.5939Z" fill="#443642"/>
<path d="M3.02431 19.3801C1.69867 19.3902 0.57571 18.6005 0.161659 17.3679C0.146298 17.3213 0.131978 17.2745 0.118709 17.2273C-0.3325 15.6488 0.542412 13.9974 2.11055 13.4687L27.2625 5.04486C27.5611 4.95849 27.8702 4.91337 28.181 4.91075C29.5419 4.90013 30.6958 5.70723 31.1199 6.96587L31.1576 7.08745C31.6281 8.73155 30.459 10.1991 29.0584 10.6694C29.0574 10.6702 28.8026 10.7563 4.04592 19.2062C3.71686 19.3183 3.37195 19.377 3.02431 19.3801Z" fill="#70CADB"/>
<path d="M7.21673 31.7457C5.88072 31.7554 4.7539 30.9767 4.34468 29.7617C4.32914 29.7155 4.31466 29.669 4.30124 29.6221C3.84376 28.0248 4.71771 26.3561 6.29115 25.8266L31.444 17.3256C31.769 17.217 32.1047 17.1616 32.4422 17.1584C33.7819 17.1483 34.9589 17.9665 35.3741 19.1952L35.4127 19.3231C35.6557 20.1724 35.5122 21.1268 35.0291 21.8801C34.6691 22.4402 33.5336 22.9333 33.5336 22.9333L8.28516 31.5636C7.94081 31.6801 7.58025 31.7417 7.21673 31.7462V31.7457Z" fill="#E01765"/>
<path d="M28.1546 31.7994C27.5026 31.8057 26.8654 31.6055 26.3342 31.2275C25.8031 30.8496 25.4052 30.3132 25.1976 29.6953L16.8032 4.76849L16.7612 4.62859C16.3064 3.039 17.1811 1.38091 18.7487 0.852658C19.0624 0.747248 19.3867 0.692252 19.7131 0.689357C20.1981 0.685739 20.6674 0.795007 21.1095 1.0133C21.4736 1.19332 21.7985 1.44352 22.0656 1.74952C22.3326 2.05552 22.5365 2.41128 22.6655 2.79634L31.0592 27.721L31.0836 27.8011C31.5551 29.4515 30.6823 31.1105 29.1147 31.6388C28.805 31.7422 28.4811 31.7964 28.1546 31.7994Z" fill="#E8A723"/>
<path d="M15.6769 35.998C15.0245 36.0042 14.387 35.8038 13.8556 35.4255C13.3242 35.0473 12.9262 34.5105 12.7187 33.8922L4.32643 8.96635C4.1964 8.5818 4.14351 8.1754 4.1708 7.77039C4.19808 7.36539 4.30501 6.96974 4.48545 6.6061C4.6659 6.24246 4.91631 5.91797 5.22237 5.65121C5.52842 5.38444 5.8841 5.18064 6.26905 5.05148C6.57916 4.94784 6.90361 4.89347 7.23058 4.89035C7.88265 4.88391 8.52001 5.08403 9.0513 5.46202C9.58258 5.84 9.98052 6.37644 10.1881 6.99444L18.5805 31.9213C18.7106 32.306 18.7635 32.7126 18.7361 33.1178C18.7088 33.523 18.6017 33.9188 18.421 34.2826C18.2403 34.6463 17.9897 34.9708 17.6833 35.2375C17.377 35.5043 17.021 35.7079 16.6358 35.8369C16.3262 35.9406 16.0023 35.9949 15.6759 35.9978H15.6769V35.998Z" fill="#3EB890"/>
<path d="M24.0161 26.1859L29.8693 24.1853L27.9559 18.5048L22.0959 20.4844L24.0161 26.1859Z" fill="#CC2027"/>
<path d="M11.5577 30.4444L17.4104 28.444L15.4825 22.72L9.62402 24.7004L11.5577 30.4444Z" fill="#361238"/>
<path d="M19.8493 13.8129L25.703 11.8149L23.812 6.20074L17.9475 8.16493L19.8493 13.8129Z" fill="#65863A"/>
<path d="M7.38935 18.0655L13.243 16.0675L11.3289 10.3817L5.46436 12.3456L7.38935 18.0655Z" fill="#1A937D"/>
</g>
<defs>
<clippath>
<rect width="120.198" height="36" fill="white"/>
</clippath>
</defs>
</svg>
